src/assets/svg/icons/fa/nuevos/classic/light/meter-droplet classic light.svg

<svg xmlns="http://www.w3.org/2000/svg" viewBox="0 0 640 512"><!--! Font Awesome Pro 6.4.0 by @fontawesome - https://fontawesome.com License - https://fontawesome.com/license (Commercial License) Copyright 2023 Fonticons, Inc. --><path d="M256 480c49.7 0 95.5-16.2 132.7-43.5c2.8 10.8 6.9 21.1 12 30.7C359.5 495.5 309.7 512 256 512C114.6 512 0 397.4 0 256S114.6 0 256 0C366.8 0 461.2 70.4 496.8 169c-8.5 5.3-15.7 12.9-20.6 22.1l-3.8 7.1C447 102.5 359.7 32 256 32C132.3 32 32 132.3 32 256s100.3 224 224 224zM176 144v64c0 8.8-7.2 16-16 16s-16-7.2-16-16V144c0-8.8 7.2-16 16-16s16 7.2 16 16zm96 0v64c0 8.8-7.2 16-16 16s-16-7.2-16-16V144c0-8.8 7.2-16 16-16s16 7.2 16 16zm96 0v64c0 8.8-7.2 16-16 16s-16-7.2-16-16V144c0-8.8 7.2-16 16-16s16 7.2 16 16zm89.4 218.4c-6.2 11.6-9.4 24.5-9.4 37.6c0 44.2 35.8 80 80 80s80-35.8 80-80c0-13.1-3.2-26.1-9.4-37.6L528 230 457.4 362.4zm-28.2-15.1l75.3-141.2c4.6-8.7 13.7-14.1 23.5-14.1s18.9 5.4 23.5 14.1l75.3 141.2c8.7 16.2 13.2 34.3 13.2 52.7c0 61.9-50.1 112-112 112s-112-50.1-112-112c0-18.4 4.5-36.5 13.2-52.7z"/></svg>

<svg xmlns="http://www.w3.org/2000/svg" viewBox="0 0 640 512"><path d="M256 480C305.7 480 351.5 463.8 388.7 436.5C391.5 447.3 395.5 457.6 400.6 467.3C359.5 495.5 309.7 512 256 512C114.6 512 0 397.4 0 256C0 114.6 114.6 0 256 0C366.8 0 461.2 70.43 496.8 168.1C488.3 174.3 481.1 181.9 476.2 191.1L472.5 198.1C446.1 102.5 359.7 31.1 256 31.1C132.3 31.1 32 132.3 32 255.1C32 379.7 132.3 480 256 480V480zM176 208C176 216.8 168.8 224 160 224C151.2 224 144 216.8 144 208V144C144 135.2 151.2 128 160 128C168.8 128 176 135.2 176 144V208zM272 208C272 216.8 264.8 224 256 224C247.2 224 240 216.8 240 208V144C240 135.2 247.2 128 256 128C264.8 128 272 135.2 272 144V208zM368 208C368 216.8 360.8 224 352 224C343.2 224 336 216.8 336 208V144C336 135.2 343.2 128 352 128C360.8 128 368 135.2 368 144V208zM429.2 347.3L504.5 206.1C509.1 197.4 518.2 191.1 528 191.1C537.8 191.1 546.9 197.4 551.5 206.1L626.8 347.3C635.5 363.5 640 381.6 640 400C640 461.9 589.9 512 528 512C466.1 512 416 461.9 416 400C416 381.6 420.5 363.5 429.2 347.3H429.2zM448 400C448 444.2 483.8 480 528 480C572.2 480 608 444.2 608 400C608 386.9 604.8 373.9 598.6 362.4L528 230L457.4 362.4C451.2 373.9 448 386.9 448 400z"/></svg>
